svgs/sharp-light/hanukiah.svg

<svg xmlns="http://www.w3.org/2000/svg" viewBox="0 0 640 512"><!--! Font Awesome Pro 6.6.0 by @fontawesome - https://fontawesome.com License - https://fontawesome.com/license (Commercial License) Copyright 2024 Fonticons, Inc. --><path d="M336 16l0 32 0 16-32 0 0-16 0-32 0-16 32 0 0 16zM64 80l0 32 0 16-32 0 0-16 0-32 0-16 32 0 0 16zm64 0l0 32 0 16-32 0 0-16 0-32 0-16 32 0 0 16zm64 0l0 32 0 16-32 0 0-16 0-32 0-16 32 0 0 16zm64 0l0 32 0 16-32 0 0-16 0-32 0-16 32 0 0 16zm160 0l0 32 0 16-32 0 0-16 0-32 0-16 32 0 0 16zm64 0l0 32 0 16-32 0 0-16 0-32 0-16 32 0 0 16zm64 0l0 32 0 16-32 0 0-16 0-32 0-16 32 0 0 16zm64 0l0 32 0 16-32 0 0-16 0-32 0-16 32 0 0 16zM336 96l0 16 0 240 48 0 0-176 0-16 32 0 0 16 0 176 32 0 0-176 0-16 32 0 0 16 0 176 32 0 0-176 0-16 32 0 0 16 0 173.3c18.6-6.6 32-24.4 32-45.3l0-128 0-16 32 0 0 16 0 128c0 44.2-35.8 80-80 80l-192 0 0 96 160 0 16 0 0 32-16 0-176 0-176 0-16 0 0-32 16 0 160 0 0-96-192 0c-44.2 0-80-35.8-80-80l0-128 0-16 32 0 0 16 0 128c0 20.9 13.4 38.7 32 45.3L96 176l0-16 32 0 0 16 0 176 32 0 0-176 0-16 32 0 0 16 0 176 32 0 0-176 0-16 32 0 0 16 0 176 48 0 0-240 0-16 32 0z"/></svg>

<svg xmlns="http://www.w3.org/2000/svg" viewBox="0 0 640 512"><!--! Font Awesome Pro 6.4.0 by @fontawesome - https://fontawesome.com License - https://fontawesome.com/license (Commercial License) Copyright 2023 Fonticons, Inc. --><path d="M336 16V48 64H304V48 16 0h32V16zM64 80v32 16H32V112 80 64H64V80zm64 0v32 16H96V112 80 64h32V80zm64 0v32 16H160V112 80 64h32V80zm64 0v32 16H224V112 80 64h32V80zm160 0v32 16H384V112 80 64h32V80zm64 0v32 16H448V112 80 64h32V80zm64 0v32 16H512V112 80 64h32V80zm64 0v32 16H576V112 80 64h32V80zM336 96v16V352h48V176 160h32v16V352h32V176 160h32v16V352h32V176 160h32v16V349.3c18.6-6.6 32-24.4 32-45.3V176 160h32v16V304c0 44.2-35.8 80-80 80H336v96H496h16v32H496 320 144 128V480h16H304V384H112c-44.2 0-80-35.8-80-80V176 160H64v16V304c0 20.9 13.4 38.7 32 45.3V176 160h32v16V352h32V176 160h32v16V352h32V176 160h32v16V352h48V112 96h32z"/></svg>
